Front/static/img/kkutu/intro/moremme_light.svg

<svg fill="none" viewBox="0 0 251 48"><path fill="#000" d="M5.712 45.488c-1.392 0-2.304-.912-2.304-2.544V4.784c0-1.92 1.008-2.928 2.88-2.928h1.536c1.728 0 2.688.672 3.168 2.4l9.696 35.712 9.504-35.712c.48-1.728 1.44-2.4 3.168-2.4h1.392c1.872 0 2.88 1.056 2.88 2.928v38.16c0 1.632-.96 2.544-2.4 2.544s-2.4-.912-2.4-2.544V9.92L23.76 43.328c-.384 1.488-1.344 2.16-2.832 2.16h-.672c-1.488 0-2.496-.72-2.88-2.16L8.016 9.872v33.072c0 1.632-.912 2.544-2.304 2.544zm91.492-14.112v11.568c0 1.632-.864 2.544-2.4 2.544s-2.4-.912-2.4-2.544V31.376c0-3.84-2.544-4.992-6.576-4.992h-7.536v16.56c0 1.632-.864 2.544-2.4 2.544s-2.4-.912-2.4-2.544V4.64c0-1.632.912-2.544 2.544-2.544H87.94c5.904 0 8.784 1.824 8.784 7.776v7.488c0 3.648-1.92 6.624-6.72 6.912 4.848.144 7.2 3.312 7.2 7.104zm-5.28-14.4v-5.472c0-3.792-1.392-5.376-5.424-5.376h-8.208v16.224h7.68c3.936 0 5.952-1.44 5.952-5.376zm31.096 28.272h-16.656c-1.632 0-2.544-.912-2.544-2.544V4.64c0-1.632.912-2.544 2.544-2.544h16.176c1.632 0 2.544.72 2.544 2.016s-.912 2.016-2.544 2.016h-13.92v14.928h13.44c1.632 0 2.544.72 2.544 2.016s-.912 2.016-2.544 2.016h-13.44v16.128h14.4c1.632 0 2.544.72 2.544 2.016s-.912 2.016-2.544 2.016zm9.114.24c-1.392 0-2.304-.912-2.304-2.544V4.784c0-1.92 1.008-2.928 2.88-2.928h1.536c1.728 0 2.688.672 3.168 2.4l9.696 35.712 9.504-35.712c.48-1.728 1.44-2.4 3.168-2.4h1.392c1.872 0 2.88 1.056 2.88 2.928v38.16c0 1.632-.96 2.544-2.4 2.544s-2.4-.912-2.4-2.544V9.92l-9.072 33.408c-.384 1.488-1.344 2.16-2.832 2.16h-.672c-1.488 0-2.496-.72-2.88-2.16l-9.36-33.456v33.072c0 1.632-.912 2.544-2.304 2.544zm41.206-1.392h-1.056c-1.248 0-2.112-.864-2.112-2.112V40.88c0-1.248.864-2.112 2.112-2.112h1.056c1.248 0 2.112.864 2.112 2.112v1.104c0 1.248-.864 2.112-2.112 2.112zm15.138 1.392c-1.392 0-2.304-.912-2.304-2.544V4.784c0-1.92 1.008-2.928 2.88-2.928h1.536c1.728 0 2.688.672 3.168 2.4l9.696 35.712 9.504-35.712c.48-1.728 1.44-2.4 3.168-2.4h1.392c1.872 0 2.88 1.056 2.88 2.928v38.16c0 1.632-.96 2.544-2.4 2.544s-2.4-.912-2.4-2.544V9.92l-9.072 33.408c-.384 1.488-1.344 2.16-2.832 2.16h-.672c-1.488 0-2.496-.72-2.88-2.16l-9.36-33.456v33.072c0 1.632-.912 2.544-2.304 2.544zm58.198-.24H230.02c-1.632 0-2.544-.912-2.544-2.544V4.64c0-1.632.912-2.544 2.544-2.544h16.176c1.632 0 2.544.72 2.544 2.016s-.912 2.016-2.544 2.016h-13.92v14.928h13.44c1.632 0 2.544.72 2.544 2.016s-.912 2.016-2.544 2.016h-13.44v16.128h14.4c1.632 0 2.544.72 2.544 2.016s-.912 2.016-2.544 2.016z"/><rect width="4" height="16" x="54" y="3" fill="#000" rx="2"/><rect width="26" height="26" x="43" y="18" fill="#fff" stroke="#000" stroke-width="4" rx="13"/></svg>

<svg width="251" height="48" viewBox="0 0 251 48" fill="none" xmlns="http://www.w3.org/2000/svg">
<path d="M5.712 45.488C4.32 45.488 3.408 44.576 3.408 42.944V4.784C3.408 2.864 4.416 1.856 6.288 1.856H7.824C9.552 1.856 10.512 2.528 10.992 4.256L20.688 39.968L30.192 4.256C30.672 2.528 31.632 1.856 33.36 1.856H34.752C36.624 1.856 37.632 2.912 37.632 4.784V42.944C37.632 44.576 36.672 45.488 35.232 45.488C33.792 45.488 32.832 44.576 32.832 42.944V9.92L23.76 43.328C23.376 44.816 22.416 45.488 20.928 45.488H20.256C18.768 45.488 17.76 44.768 17.376 43.328L8.016 9.872V42.944C8.016 44.576 7.104 45.488 5.712 45.488ZM97.2038 31.376V42.944C97.2038 44.576 96.3398 45.488 94.8038 45.488C93.2678 45.488 92.4038 44.576 92.4038 42.944V31.376C92.4038 27.536 89.8598 26.384 85.8278 26.384H78.2918V42.944C78.2918 44.576 77.4278 45.488 75.8918 45.488C74.3558 45.488 73.4918 44.576 73.4918 42.944V4.64C73.4918 3.008 74.4038 2.096 76.0358 2.096H87.9398C93.8438 2.096 96.7238 3.92 96.7238 9.872V17.36C96.7238 21.008 94.8038 23.984 90.0038 24.272C94.8518 24.416 97.2038 27.584 97.2038 31.376ZM91.9238 16.976V11.504C91.9238 7.712 90.5318 6.128 86.4998 6.128H78.2918V22.352H85.9718C89.9078 22.352 91.9238 20.912 91.9238 16.976ZM123.02 45.248H106.364C104.732 45.248 103.82 44.336 103.82 42.704V4.64C103.82 3.008 104.732 2.096 106.364 2.096H122.54C124.172 2.096 125.084 2.816 125.084 4.112C125.084 5.408 124.172 6.128 122.54 6.128H108.62V21.056H122.06C123.692 21.056 124.604 21.776 124.604 23.072C124.604 24.368 123.692 25.088 122.06 25.088H108.62V41.216H123.02C124.652 41.216 125.564 41.936 125.564 43.232C125.564 44.528 124.652 45.248 123.02 45.248ZM132.134 45.488C130.742 45.488 129.83 44.576 129.83 42.944V4.784C129.83 2.864 130.838 1.856 132.71 1.856H134.246C135.974 1.856 136.934 2.528 137.414 4.256L147.11 39.968L156.614 4.256C157.094 2.528 158.054 1.856 159.782 1.856H161.174C163.046 1.856 164.054 2.912 164.054 4.784V42.944C164.054 44.576 163.094 45.488 161.654 45.488C160.214 45.488 159.254 44.576 159.254 42.944V9.92L150.182 43.328C149.798 44.816 148.838 45.488 147.35 45.488H146.678C145.19 45.488 144.182 44.768 143.798 43.328L134.438 9.872V42.944C134.438 44.576 133.526 45.488 132.134 45.488ZM173.34 44.096H172.284C171.036 44.096 170.172 43.232 170.172 41.984V40.88C170.172 39.632 171.036 38.768 172.284 38.768H173.34C174.588 38.768 175.452 39.632 175.452 40.88V41.984C175.452 43.232 174.588 44.096 173.34 44.096ZM188.478 45.488C187.086 45.488 186.174 44.576 186.174 42.944V4.784C186.174 2.864 187.182 1.856 189.054 1.856H190.59C192.318 1.856 193.278 2.528 193.758 4.256L203.454 39.968L212.958 4.256C213.438 2.528 214.398 1.856 216.126 1.856H217.518C219.39 1.856 220.398 2.912 220.398 4.784V42.944C220.398 44.576 219.438 45.488 217.998 45.488C216.558 45.488 215.598 44.576 215.598 42.944V9.92L206.526 43.328C206.142 44.816 205.182 45.488 203.694 45.488H203.022C201.534 45.488 200.526 44.768 200.142 43.328L190.782 9.872V42.944C190.782 44.576 189.87 45.488 188.478 45.488ZM246.676 45.248H230.02C228.388 45.248 227.476 44.336 227.476 42.704V4.64C227.476 3.008 228.388 2.096 230.02 2.096H246.196C247.828 2.096 248.74 2.816 248.74 4.112C248.74 5.408 247.828 6.128 246.196 6.128H232.276V21.056H245.716C247.348 21.056 248.26 21.776 248.26 23.072C248.26 24.368 247.348 25.088 245.716 25.088H232.276V41.216H246.676C248.308 41.216 249.22 41.936 249.22 43.232C249.22 44.528 248.308 45.248 246.676 45.248Z" fill="black"/>
<rect x="54" y="3" width="4" height="16" rx="2" fill="black"/>
<rect x="43" y="18" width="26" height="26" rx="13" fill="white" stroke="black" stroke-width="4"/>
</svg>
